X:4
T:Prince Georges Rigadoon
M:6/8
L:1/8
B:Thompson's Compleat Collection of 200 Favourite Country Dances, vol. 1 (London, 1757)
Z:Transcribed and edited by Fynnian Titford-Mock, 2007
Z:abc's:AK/Fiddler's Companion
K:Bb
f|b2d g2c|f2A B2 (c/4d/4e/)|d>cB A2B|c2F F2 (f/4g/4a/)|bfd fdB A2 (g/4a/4b/)|
a>gf "tr"g3|(f3 f2)::f|g2 (E E)GB|ega bag|f2 (D D)FB|dfa bfe|dcB "tr"c3|(B3 B2):|

